X:1
T:And He Came to Bethany
T:And He Came to Bethany
T:James McGranahan
T:Philip Paul Bliss, 1872
T:Public Domain Courtesy of the Cyber Hymnal™
T:Public Domain Courtesy of the Cyber Hymnal™
C:James McGranahan
Z:Public Domain
Z:Courtesy of the Cyber Hymnal™
%%score ( 1 2 ) ( 3 4 )
L:1/8
Q:1/4=103
M:4/4
K:F
V:1 treble 
V:2 treble 
V:3 bass 
V:4 bass 
V:1
 [Ac]>[GB] | [FA]2 [FA]2 [FA]2 [FG]F | [FB]2 [FB]2 [FB]2 [FB][FB] | [FA]3 [FA] [FG][FG] F2 | %4
w: 1.~There is|love, true love, and the|heart grows warm, When the|Lord to Beth- a- ny|
w: 2.~There is|joy, glad joy, and a|feast is spread, When the|Lord to Beth- a- ny|
w: 3.~There is|peace, sweet peace, and the|life grows calm, When the|Lord to Beth- a- ny|
w: 4.~There is|faith, strong faith, and our|home seems near, When the|Lord to Beth- a- ny|
 [EG]6 [Ec]>[GB] | [FA]2 [FA]2 [FA]2 [FG]F | [FB]2 [FB]2 [FB]2 [Fd][Fd] | %7
w: comes, And the|word of life has a|won- drous charm, When the|
w: comes, For His|heaven- ly voice brings to|life the dead, When the|
w: comes, And the|trust- ing soul sings a|sweet, soft psalm, When the|
w: comes, And the|crown more bright, and the|cross more dear, When the|
 [Fc]3 [Fc] [Ec][EB] [EG]2 | F6 ||"^Refrain" [Fc][Fc] | [Fd][Fd][Fd][Fd] [Fd]2 [Ff][Fd] | %11
w: Lord to Beth- a- ny|comes.|||
w: Lord to Beth- a- ny|comes.|||
w: Lord to Beth- a- ny|comes.|||
w: Lord to Beth- a- ny|comes.|||
 [Fc]3 [FA] F2 [FA][FA] | [EG]3 [EG] [Ec][Ec] [GB]2 | ([FA]4 [Ac]2) [Fc][Fc] | %14
w: |||
w: |||
w: |||
w: |||
 [Fd]2 [Fd]2 [Fd]2 [Ff][Fd] | [Fc]3 [FA] F2 [FA][FA] | [EG]3 [FA] [EG][DF] ([CE][=B,D]) | C6 C2 | %18
w: ||||
w: ||||
w: ||||
w: ||||
 [FA]2 [FA]2 [FA][FG] F2 | B6 [FB]2 | [FA]2 [FA]2 [FA][FG] F2 | G6 [Ec]>[GB] | %22
w: ||||
w: ||||
w: ||||
w: ||||
 [FA]2 [FA]2 [FA]2 [FG]F | [FB]2 [Fc]2 !fermata![Fd]2 [Ff][Fd] | [Fc]3 [Fc] [Ec][EB] [EG]2 | F6 |] %26
w: ||||
w: ||||
w: ||||
w: ||||
V:2
 x2 | x7 F | x8 | x6 F2 | x8 | x7 F | x8 | x8 | F6 || x2 | x8 | x4 F2 x2 | x8 | x8 | x8 | %15
 x4 F2 x2 | x8 | C6 C2 | x6 F2 | (FF F2 F2) x2 | x6 F2 | (EE E2 E2) x2 | x7 F | x8 | x8 | F6 |] %26
V:3
 [F,C]>[F,C] | [F,C]2 [F,C]2 [F,C]2 [F,B,][F,A,] | [B,,D]2 [B,,D]2 [B,,D]2 [B,,D][B,,D] | %3
w: ~ ~|~ ~ ~ ~ ~|~ ~ ~ ~ ~|
 [F,C]3 [F,C] [F,C][F,B,] [F,A,]2 | [C,C]6 [C,C]>[C,C] | [F,C]2 [F,C]2 [F,C]2 [F,B,][F,A,] | %6
w: ~ ~ ~ ~ ~|~ ~ ~|~ ~ ~ ~ ~|
 [B,,D]2 [B,,D]2 [B,,D]2 [B,,B,][B,,B,] | [C,A,]3 [C,A,] [C,G,][C,G,] [C,B,]2 | [F,A,]6 || %9
w: ~ ~ ~ ~ ~|~ ~ ~ ~ ~|~|
 [F,A,][F,A,] | [B,,B,][B,,B,][B,,B,][B,,B,] [B,,B,]2 [B,,D][B,,B,] | %11
w: ’Twas a|hap- py, hap- py day in the|
 [F,A,]3 [F,C] [F,A,]2 [F,C][F,C] | [C,C]3 [C,C] [C,C][C,C] [C,C]2 | (C4 A,2) [F,A,][F,A,] | %14
w: old- en time, When the|Lord to Beth- a- ny|came. * O- pen|
 [B,,B,]2 [B,,B,]2 [B,,B,]2 [B,,D][B,,B,] | [F,A,]3 [F,C] [F,A,]2 [F,C][F,C] | %16
w: wide the door, let Him|en- ter now, For His|
 [G,C]3 [G,C] [G,C]G, (G,F,) | [C,E,]6 [E,G,]2 | F,2 [F,C]2 [F,C][F,B,] [F,A,]2 | D6 [F,D]2 | %20
w: love is ev- er the *|same; His|love is ev- er the|same, His|
 [F,C]2 [F,C]2 [F,C][F,B,] [F,A,]2 | C6 [C,C]>[C,C] | [F,C]2 [F,C]2 [F,C]2 [_E,C][E,C] | %23
w: love is ev- er the|same. O- pen|wide the door, let Him|
 [D,B,]2 [C,A,]2 !fermata![B,,B,]2 [B,,D][B,,B,] | [C,A,]3 [C,A,] [C,G,][C,G,] [C,B,]2 | [F,A,]6 |] %26
w: en- ter now, For His|love is ev- er the|same.|
V:4
 x2 | x8 | x8 | x8 | x8 | x8 | x8 | x8 | x6 || x2 | x8 | x8 | x8 | F,6 x2 | x8 | x8 | x5 G, G,,2 | %17
 x8 | F,2 x6 | (F,F, F,2 F,2) x2 | x8 | (C,C, C,2 C,2) x2 | x8 | x8 | x8 | x6 |] %26

